static/icons/instagram.svg

<svg xmlns="http://www.w3.org/2000/svg" width="24" height="24" viewBox="0 0 24 24">
  <path fill-rule="evenodd" d="M14.6664497,12 C14.6664497,10.5313695 13.4686305,9.33355033 12,9.33355033 C10.5313695,9.33355033 9.33355033,10.5313695 9.33355033,12 C9.33355033,13.4686305 10.5313695,14.6664497 12,14.6664497 C13.4686305,14.6664497 14.6664497,13.4686305 14.6664497,12 Z M16.1038327,12 C16.1038327,14.2706485 14.2706485,16.1038327 12,16.1038327 C9.72935145,16.1038327 7.8961673,14.2706485 7.8961673,12 C7.8961673,9.72935145 9.72935145,7.8961673 12,7.8961673 C14.2706485,7.8961673 16.1038327,9.72935145 16.1038327,12 Z M17.2287412,7.7295142 C17.2287412,8.26072097 16.8016926,8.68776955 16.2704858,8.68776955 C15.739279,8.68776955 15.3122304,8.26072097 15.3122304,7.7295142 C15.3122304,7.19830743 15.739279,6.77125885 16.2704858,6.77125885 C16.8016926,6.77125885 17.2287412,7.19830743 17.2287412,7.7295142 Z M12,5.43803401 C10.8334283,5.43803401 8.3336317,5.34429164 7.28163398,5.7609244 C6.91708032,5.90674587 6.64626902,6.08381479 6.36504191,6.36504191 C6.08381479,6.64626902 5.90674587,6.91708032 5.7609244,7.28163398 C5.34429164,8.3336317 5.43803401,10.8334283 5.43803401,12 C5.43803401,13.1665717 5.34429164,15.6663683 5.7609244,16.718366 C5.90674587,17.0829197 6.08381479,17.353731 6.36504191,17.6349581 C6.64626902,17.9161852 6.91708032,18.0932541 7.28163398,18.2390756 C8.3336317,18.6557084 10.8334283,18.561966 12,18.561966 C13.1665717,18.561966 15.6663683,18.6557084 16.718366,18.2390756 C17.0829197,18.0932541 17.353731,17.9161852 17.6349581,17.6349581 C17.9161852,17.353731 18.0932541,17.0829197 18.2390756,16.718366 C18.6557084,15.6663683 18.561966,13.1665717 18.561966,12 C18.561966,10.8334283 18.6557084,8.3336317 18.2390756,7.28163398 C18.0932541,6.91708032 17.9161852,6.64626902 17.6349581,6.36504191 C17.353731,6.08381479 17.0829197,5.90674587 16.718366,5.7609244 C15.6663683,5.34429164 13.1665717,5.43803401 12,5.43803401 Z M19.999349,12 C19.999349,13.1040768 20.0097648,14.1977378 19.9472699,15.3018146 C19.884775,16.5829604 19.5931321,17.7182846 18.6557084,18.6557084 C17.7182846,19.5931321 16.5829604,19.884775 15.3018146,19.9472699 C14.1977378,20.0097648 13.1040768,19.999349 12,19.999349 C10.8959232,19.999349 9.80226219,20.0097648 8.69818537,19.9472699 C7.41703963,19.884775 6.28171536,19.5931321 5.34429164,18.6557084 C4.40686793,17.7182846 4.115225,16.5829604 4.05273008,15.3018146 C3.99023517,14.1977378 4.00065099,13.1040768 4.00065099,12 C4.00065099,10.8959232 3.99023517,9.80226219 4.05273008,8.69818537 C4.115225,7.41703963 4.40686793,6.28171536 5.34429164,5.34429164 C6.28171536,4.40686793 7.41703963,4.115225 8.69818537,4.05273008 C9.80226219,3.99023517 10.8959232,4.00065099 12,4.00065099 C13.1040768,4.00065099 14.1977378,3.99023517 15.3018146,4.05273008 C16.5829604,4.115225 17.7182846,4.40686793 18.6557084,5.34429164 C19.5931321,6.28171536 19.884775,7.41703963 19.9472699,8.69818537 C20.0097648,9.80226219 19.999349,10.8959232 19.999349,12 Z"/>
</svg>

<svg xmlns="http://www.w3.org/2000/svg" width="24" height="24">
    <path fill-rule="evenodd" d="M14.666 12A2.672 2.672 0 0 0 12 9.334 2.672 2.672 0 0 0 9.334 12 2.672 2.672 0 0 0 12 14.666 2.672 2.672 0 0 0 14.666 12zm1.438 0A4.099 4.099 0 0 1 12 16.104 4.099 4.099 0 0 1 7.896 12 4.099 4.099 0 0 1 12 7.896 4.099 4.099 0 0 1 16.104 12zm1.125-4.27a.956.956 0 0 1-.959.958.956.956 0 0 1-.958-.958c0-.532.427-.959.958-.959.532 0 .959.427.959.959zM12 5.438c-1.167 0-3.666-.094-4.718.323a2.558 2.558 0 0 0-.917.604 2.558 2.558 0 0 0-.604.917c-.417 1.052-.323 3.551-.323 4.718 0 1.167-.094 3.666.323 4.718.146.365.323.636.604.917.281.281.552.458.917.604 1.052.417 3.551.323 4.718.323 1.167 0 3.666.094 4.718-.323.365-.146.636-.323.917-.604.281-.281.458-.552.604-.917.417-1.052.323-3.551.323-4.718 0-1.167.094-3.666-.323-4.718a2.558 2.558 0 0 0-.604-.917 2.558 2.558 0 0 0-.917-.604c-1.052-.417-3.551-.323-4.718-.323zM20 12c0 1.104.01 2.198-.053 3.302-.062 1.281-.354 2.416-1.291 3.354-.938.937-2.073 1.229-3.354 1.291C14.198 20.01 13.104 20 12 20s-2.198.01-3.302-.052c-1.281-.062-2.416-.354-3.354-1.291-.937-.938-1.229-2.073-1.291-3.354C3.99 14.198 4 13.104 4 12s-.01-2.198.052-3.302c.062-1.281.354-2.416 1.291-3.354.938-.937 2.073-1.229 3.354-1.291C9.802 3.99 10.896 4 12 4s2.198-.01 3.302.052c1.281.062 2.416.354 3.354 1.291.937.938 1.229 2.073 1.291 3.354C20.01 9.802 20 10.896 20 12z"/>
</svg>
